X:209
T:My Maryanne
R:Reel
O:Ireland
B:O'Neill's 1194
S:Martin Hayes Concert- Santa Cruz 1999
Z:Transcription, minor arr., chords:Mike Long
M:C|
L:1/8
K:C
B[|\
"C"c2{d}cB cAGc|"G"Ad~d2 dcAB|"C"c2{d}cB cAGF-|"F"FEDE "G"FGAB|\
"C"c2{d}cB cAGc|
"Dm"Ad~d2 {c}"G"dcAB|"C"c2{d}cB cAGF-|"F"FEDE "G"FGAc|]\
"Am"egge c2cd|ea{b}a2 aged|"Dm"ec ~c2 dfed|
"G"cA (3(GAB) cBcd|\
"Am"egge c2cd|ea{b}a2 aged|"Dm"ec ~c2 dfed|"G"cA (3(GAB) cded|]
